X: 12805
T: Feathers, The
R: jig
M: 6/8
K: Gmajor
|:D|G2 G G2 g|gfe d3|c2 B A2 G|FGA D3|
G2 G G2 g|gfe d2 c|BAG DGF|1 G3 G2:|2 G3 G3||
|:D2 D D2 d|dcB c3|D2 D D2 c|cBA B2 A|
G2 G G2 g|gfe d2 c|BAG DGF|1 G3 G3:|2 G3 G2||
|:A|_BAG G2 A|_BAG G2 A|_BAG _BAG|A2 D D2 A|
_BAG G2 A|_BAG G2 d|dc_B AGF|G3 G2:|

